img/icon-email-header.svg

<svg fill="none" height="14" viewBox="0 0 20 14" width="20" xmlns="http://www.w3.org/2000/svg"><path clip-rule="evenodd" d="m10 7.53977-8.18636-6.13977h16.37276zm-8.66667 3.60383v-8.38337l5.27254 3.9544zm.40052 1.4564h16.53225l-5.9996-5.03967-1.879 1.40928-.3875.29062-.38749-.29062-1.87905-1.40928zm11.66025-5.88537 5.2726 4.42897v-8.38337zm-12.06077-6.71463c-.736376 0-1.33333.626802-1.33333 1.4v11.2c0 .7732.596954 1.4 1.33333 1.4h17.33337c.7363 0 1.3333-.6268 1.3333-1.4v-11.2c0-.773199-.597-1.4-1.3333-1.4z" fill="#288be6" fill-rule="evenodd"/></svg>

<svg width="20" height="14" viewBox="0 0 20 14" fill="none" xmlns="http://www.w3.org/2000/svg">
<path fill-rule="evenodd" clip-rule="evenodd" d="M10 7.53977L1.81364 1.4H18.1864L10 7.53977ZM1.33333 11.1436L1.33333 2.76023L6.60587 6.71463L1.33333 11.1436ZM1.73385 12.6H18.2661L12.2665 7.56033L10.3875 8.96961L10 9.26023L9.61251 8.96961L7.73346 7.56033L1.73385 12.6ZM13.3941 6.71463L18.6667 11.1436V2.76023L13.3941 6.71463ZM1.33333 0C0.596954 0 0 0.626802 0 1.4V12.6C0 13.3732 0.596954 14 1.33333 14H18.6667C19.403 14 20 13.3732 20 12.6V1.4C20 0.626801 19.403 0 18.6667 0H1.33333Z" fill="#288BE6"/>
</svg>
